X:118
T:Steirer, Privatarchiv Hofer, Sammelgut Loekher Franz 3 Loe 3 AB
C:traditionell
R:Steirer
B:"Hundert Steirer aus dem Ausseerland", F .Hofer, Steirisches Volksliedwerk, Graz, undated,
N:im buch in D, nr. 2, 2.Teil
S:Privatarchiv Hofer, Leihgabe an Museum, Sammelgut Loekher Franz 3 Loe 3 AB, Aussee, 1836-1908
A:Aussee, Salzkammergut
N:quelle einstimmig
M:3/4
L:1/8
K:G
Bdgdbd | cdfdc'd | cdfdc'd | bdgd B2 |\
Bdgdbd | cdfdc'd | cdfdc'd | g6 :|
